public/assets/images/others/icon/08.svg

<svg width="50" height="50" viewBox="0 0 50 50" fill="none" xmlns="http://www.w3.org/2000/svg">
<path d="M49.8823 40.3711C49.8823 40.3711 49.8823 40.3613 49.8921 40.3613C49.9019 40.3418 49.9116 40.332 49.9214 40.3125V40.3027C49.9312 40.2832 49.9409 40.2637 49.9507 40.2539C49.9507 40.2539 49.9507 40.2539 49.9507 40.2441C49.9604 40.2246 49.9604 40.2051 49.9702 40.1855C49.9702 40.1855 49.9702 40.1855 49.9702 40.1758C49.98 40.1562 49.98 40.1367 49.9897 40.1172C49.9897 40.1074 49.9897 40.1074 49.9897 40.0977C49.9897 40.0781 49.9995 40.0684 49.9995 40.0488C49.9995 40.0293 49.9995 40 49.9995 39.9805V5.37109C49.9995 3.35938 48.3589 1.71875 46.3472 1.71875H15.439C13.4272 1.71875 11.7866 3.35938 11.7866 5.37109V13.1445C11.2788 13.1738 10.7515 13.2227 10.146 13.3008C9.87256 13.3398 9.64795 13.5352 9.57959 13.7988L9.03271 15.752C8.66162 15.8789 8.29053 16.0352 7.93896 16.2012L6.17139 15.2051C5.93701 15.0684 5.63428 15.0879 5.41943 15.2539C4.03271 16.3184 3.20264 17.1484 2.13818 18.5352C1.97217 18.75 1.95264 19.0527 2.08936 19.2871L3.08545 21.0547C2.90967 21.4062 2.76318 21.7773 2.63623 22.1484L0.683105 22.6953C0.419434 22.7734 0.224121 22.9883 0.185059 23.2617C-0.059082 25.0879 -0.059082 26.084 0.185059 27.9102C0.224121 28.1836 0.419434 28.4082 0.683105 28.4766L2.63623 29.0234C2.76318 29.3945 2.91943 29.7559 3.08545 30.1172L2.08936 31.8848C1.95264 32.1191 1.97217 32.4219 2.13818 32.6367C3.20264 34.0332 4.03271 34.8633 5.41943 35.918C5.63428 36.084 5.93701 36.1035 6.17139 35.9668L7.93896 34.9609C8.30029 35.1367 8.66162 35.2832 9.03271 35.4102L9.57959 37.3633C9.65771 37.627 9.87256 37.8223 10.146 37.8613C10.7612 37.9395 11.2886 37.998 11.7866 38.0273V44.6289C11.7866 46.6406 13.4272 48.2812 15.439 48.2812H41.7085H41.7769C41.7964 48.2812 41.8159 48.2812 41.8257 48.2715H41.8452C41.8647 48.2715 41.8843 48.2617 41.9038 48.252C41.9233 48.2422 41.9429 48.2422 41.9624 48.2324L42.021 48.2031H42.0308C42.0503 48.1934 42.0601 48.1836 42.0796 48.1738C42.0796 48.1738 42.0894 48.1738 42.0894 48.1641C42.1089 48.1543 42.1187 48.1445 42.1284 48.1348L42.1382 48.125C42.1577 48.1152 42.1675 48.0957 42.187 48.0762L49.8042 40.459C49.8237 40.4395 49.8335 40.4297 49.853 40.4102L49.8628 40.4004C49.8628 40.4004 49.8726 40.3809 49.8823 40.3711ZM10.2534 34.6973C10.1948 34.4727 10.019 34.2969 9.79443 34.2285C9.26709 34.0723 8.74951 33.8477 8.2417 33.584C8.03662 33.4766 7.79248 33.4766 7.5874 33.5938L5.89795 34.5508C4.93115 33.7793 4.27686 33.125 3.50537 32.1582L4.4624 30.4688C4.57959 30.2637 4.57959 30.0195 4.47217 29.8145C4.2085 29.3164 3.99365 28.7891 3.82764 28.2617C3.75928 28.0371 3.5835 27.8613 3.35889 27.8027L1.48389 27.2852C1.32764 26.0059 1.32764 25.1758 1.48389 23.8965L3.35889 23.3789C3.5835 23.3203 3.75928 23.1445 3.82764 22.9199C3.99365 22.3828 4.2085 21.8652 4.47217 21.3672C4.57959 21.1621 4.57959 20.918 4.4624 20.7129L3.50537 19.0234C4.27686 18.0469 4.93115 17.3926 5.89795 16.6309L7.5874 17.5879C7.79248 17.7051 8.03662 17.7051 8.2417 17.5977C8.72998 17.334 9.25732 17.1191 9.79443 16.9531C10.019 16.8848 10.1851 16.709 10.2534 16.4844L10.771 14.6094C11.3765 14.541 11.9038 14.502 12.4214 14.502H12.4604C12.4604 14.502 12.4897 14.502 12.4995 14.502C13.0269 14.502 13.5444 14.541 14.1499 14.6094L14.6675 16.4844C14.7261 16.709 14.9019 16.8848 15.1265 16.9531C15.6538 17.1094 16.1714 17.334 16.6792 17.5977C16.8843 17.7051 17.1284 17.7051 17.3335 17.5879L19.0229 16.6309C20.019 17.4121 20.6343 18.0371 21.4155 19.0234L20.4585 20.7129C20.3413 20.918 20.3413 21.1621 20.4487 21.3672C20.6929 21.8262 20.9272 22.3828 21.0933 22.9199C21.1616 23.1445 21.3374 23.3105 21.562 23.3789L23.437 23.8965C23.5933 25.1758 23.5933 26.0059 23.437 27.2852L21.562 27.8027C21.3374 27.8613 21.1616 28.0371 21.0933 28.2617C20.9272 28.7891 20.7124 29.3164 20.4487 29.8145C20.3413 30.0195 20.3413 30.2637 20.4585 30.4688L21.0054 31.4258C21.0054 31.4355 21.0151 31.4355 21.0151 31.4453L21.4155 32.1582C20.6343 33.1543 20.0093 33.7695 19.0229 34.5508L17.3335 33.5938C17.1284 33.4766 16.8843 33.4766 16.6792 33.584C16.1812 33.8477 15.6636 34.0625 15.1265 34.2285C14.9019 34.2969 14.7358 34.4727 14.6675 34.6973L14.1499 36.5723C12.8706 36.7285 12.0405 36.7285 10.7612 36.5723L10.2534 34.6973ZM13.1538 44.6289V38.0273C13.6519 37.998 14.1694 37.9492 14.7944 37.8613C15.0679 37.8223 15.2925 37.627 15.3608 37.3633L15.9077 35.4102C16.2788 35.2832 16.6499 35.127 17.0015 34.9609L18.769 35.957C19.0034 36.0938 19.3062 36.0742 19.521 35.9082C20.1558 35.4297 20.6538 35.0098 21.1128 34.5703H35.019C35.3999 34.5703 35.7026 34.2676 35.7026 33.8867C35.7026 33.5059 35.3999 33.2031 35.019 33.2031H22.3433C22.4897 33.0176 22.6362 32.832 22.7925 32.627C22.9585 32.4121 22.978 32.1094 22.8413 31.875L22.7925 31.7871H34.9995C35.3804 31.7871 35.6831 31.4844 35.6831 31.1035C35.6831 30.7227 35.3804 30.4199 34.9995 30.4199H22.0112L21.8355 30.1074C22.0112 29.7461 22.1577 29.3848 22.2847 29.0137L22.3433 28.9941H34.9995C35.3804 28.9941 35.6831 28.6914 35.6831 28.3105C35.6831 27.9297 35.3804 27.627 34.9995 27.627H24.7847C24.853 27.0996 24.8921 26.6406 24.9116 26.2109H34.9995C35.3804 26.2109 35.6831 25.9082 35.6831 25.5273C35.6831 25.1465 35.3804 24.8437 34.9995 24.8437H24.9116C24.8823 24.3652 24.8335 23.8574 24.7554 23.252C24.7163 22.9785 24.521 22.7539 24.2573 22.6855L22.3042 22.1387C22.1772 21.7676 22.021 21.3867 21.855 21.0449L22.8511 19.2773C22.9878 19.043 22.9683 18.7402 22.8022 18.5254C21.7085 17.0996 20.9468 16.3281 19.521 15.2441C19.3062 15.0781 19.0034 15.0586 18.769 15.1953L16.9917 16.2012C16.6304 16.0254 16.269 15.8789 15.898 15.752L15.3511 13.7988C15.2729 13.5352 15.0581 13.3398 14.7847 13.3008C14.1792 13.2227 13.6519 13.1641 13.144 13.1445V5.37109C13.144 4.11133 14.1694 3.08594 15.4292 3.08594H46.3374C47.5972 3.08594 48.6226 4.11133 48.6226 5.37109V39.3066H42.6069C41.728 39.3066 41.0054 40.0293 41.0054 40.9082V46.9238H15.4194C14.1792 46.9141 13.1538 45.8887 13.1538 44.6289ZM47.6655 40.6738L42.3921 45.9473V40.8984C42.3921 40.7715 42.4995 40.6641 42.6265 40.6641H47.6655V40.6738ZM44.1206 25.5371C44.1206 25.918 43.8179 26.2207 43.437 26.2207H37.8901C37.5093 26.2207 37.2065 25.918 37.2065 25.5371C37.2065 25.1562 37.5093 24.8535 37.8901 24.8535H43.437C43.8179 24.8535 44.1206 25.1562 44.1206 25.5371ZM36.6304 16.6895C36.9331 16.7383 37.2261 16.7578 37.5288 16.7578C38.5054 16.7578 39.4624 16.5234 40.3218 16.0645C40.3315 16.0645 40.3315 16.0645 40.3413 16.0547C40.3511 16.0449 40.3608 16.0449 40.3804 16.0352C40.6343 15.8984 40.8882 15.7422 41.1323 15.5566C42.4312 14.5898 43.2808 13.1836 43.5151 11.582C43.7495 9.98047 43.3491 8.38867 42.3823 7.08984C42.3726 7.08008 42.3726 7.07031 42.3628 7.07031C42.353 7.05078 42.3335 7.03125 42.3237 7.01172C42.3042 6.99219 42.2847 6.97266 42.2749 6.95312C41.3081 5.73242 39.9409 4.94141 38.4077 4.7168C36.8062 4.48242 35.2144 4.88281 33.9155 5.84961C32.6167 6.81641 31.7671 8.22266 31.5327 9.82422C31.2983 11.4258 31.6987 13.0176 32.6655 14.3164C33.6226 15.6055 35.0288 16.4551 36.6304 16.6895ZM36.8354 15.3418C35.5952 15.1562 34.5015 14.502 33.7593 13.4961C33.3979 13.0078 33.1343 12.4609 32.9878 11.8848L37.1382 11.4355L39.0815 15.127C38.3687 15.3711 37.5972 15.4492 36.8354 15.3418ZM42.1577 11.3867C41.9722 12.627 41.3179 13.7207 40.312 14.4629C40.3022 14.4727 40.2925 14.4727 40.2827 14.4824L38.3882 10.8984L41.6011 8.42773C42.1089 9.31641 42.3042 10.3516 42.1577 11.3867ZM34.7261 6.94336C35.5464 6.33789 36.5132 6.01562 37.5093 6.01562C37.7437 6.01562 37.9683 6.03516 38.2026 6.06445C39.189 6.21094 40.0776 6.65039 40.771 7.33398L37.2456 10.0391L32.8315 10.5176C32.8413 10.3516 32.8511 10.1855 32.8804 10.0098C33.0659 8.7793 33.7202 7.68555 34.7261 6.94336ZM26.8159 36.3086H17.1089C16.728 36.3086 16.4253 36.6113 16.4253 36.9922V39.5117C16.4253 39.8926 16.728 40.1953 17.1089 40.1953H26.8159C27.1968 40.1953 27.4995 39.8926 27.4995 39.5117V36.9922C27.4995 36.6113 27.187 36.3086 26.8159 36.3086ZM26.1323 38.8281H17.7925V37.6758H26.1323V38.8281ZM44.1206 22.6562V20.1465C44.1206 19.7656 43.8179 19.4629 43.437 19.4629H33.0757C32.6948 19.4629 32.3921 19.7656 32.3921 20.1465V22.6562C32.3921 23.0371 32.6948 23.3398 33.0757 23.3398H43.437C43.8179 23.3398 44.1206 23.0371 44.1206 22.6562ZM42.7534 21.9727H33.7593V20.8301H42.7534V21.9727ZM44.1206 28.3203C44.1206 28.7012 43.8179 29.0039 43.437 29.0039H37.8901C37.5093 29.0039 37.2065 28.7012 37.2065 28.3203C37.2065 27.9395 37.5093 27.6367 37.8901 27.6367H43.437C43.8179 27.6367 44.1206 27.9395 44.1206 28.3203ZM44.1206 31.1035C44.1206 31.4844 43.8179 31.7871 43.437 31.7871H37.8901C37.5093 31.7871 37.2065 31.4844 37.2065 31.1035C37.2065 30.7227 37.5093 30.4199 37.8901 30.4199H43.437C43.8179 30.4199 44.1206 30.7227 44.1206 31.1035ZM37.8901 34.5703C37.5093 34.5703 37.2065 34.2676 37.2065 33.8867C37.2065 33.5059 37.5093 33.2031 37.8901 33.2031H43.437C43.8179 33.2031 44.1206 33.5059 44.1206 33.8867C44.1206 34.2676 43.8179 34.5703 43.437 34.5703H37.8901ZM18.7397 25.5859C18.7397 22.1289 15.9272 19.3066 12.4604 19.3066C8.99365 19.3066 6.19092 22.1289 6.19092 25.5859C6.19092 29.0527 9.00342 31.8652 12.4702 31.8652C15.937 31.8652 18.7397 29.0527 18.7397 25.5859ZM12.4702 30.498C9.76514 30.498 7.55811 28.291 7.55811 25.5859C7.55811 22.8809 9.75537 20.6738 12.4702 20.6738C15.1851 20.6738 17.3823 22.8711 17.3823 25.5859C17.3726 28.291 15.1753 30.498 12.4702 30.498Z" fill="#615EFC"/>
</svg>

<svg xmlns="http://www.w3.org/2000/svg" width="50" height="50" fill="none" viewBox="0 0 50 50"><path fill="#615efc" d="M49.882 40.371s0-.01.01-.01c.01-.02.02-.029.03-.048v-.01c.01-.02.019-.04.029-.05v-.009c.01-.02.01-.039.02-.059v-.01c.009-.019.009-.038.019-.058v-.02c0-.019.01-.029.01-.048V5.37a3.66 3.66 0 0 0-3.653-3.652H15.44a3.66 3.66 0 0 0-3.652 3.652v7.774c-.508.029-1.036.078-1.641.156a.68.68 0 0 0-.566.498l-.547 1.953a11 11 0 0 0-1.094.45l-1.768-.997a.68.68 0 0 0-.752.049c-1.386 1.064-2.216 1.894-3.28 3.281a.68.68 0 0 0-.05.752l.996 1.768a9 9 0 0 0-.449 1.093l-1.953.547a.69.69 0 0 0-.498.567c-.244 1.826-.244 2.822 0 4.648a.68.68 0 0 0 .498.567l1.953.546c.127.372.283.733.45 1.094l-.997 1.768a.68.68 0 0 0 .05.752c1.064 1.396 1.894 2.226 3.28 3.281a.68.68 0 0 0 .752.049L7.94 34.96a10 10 0 0 0 1.094.45l.547 1.952a.69.69 0 0 0 .566.498c.615.079 1.143.137 1.64.166v6.602a3.66 3.66 0 0 0 3.653 3.652h26.338c.02 0 .039 0 .049-.01h.02c.019 0 .038-.01.058-.019.02-.01.039-.01.058-.02l.059-.029h.01c.02-.01.03-.02.049-.03 0 0 .01 0 .01-.009q.026-.015.038-.03l.01-.009c.02-.01.03-.03.049-.049l7.617-7.617.049-.049.01-.01s.01-.02.02-.029m-39.629-5.674a.67.67 0 0 0-.459-.469 9 9 0 0 1-1.552-.644.68.68 0 0 0-.655.01L5.9 34.55a14 14 0 0 1-2.393-2.393l.957-1.69a.68.68 0 0 0 .01-.654 9.3 9.3 0 0 1-.644-1.552.67.67 0 0 0-.47-.46l-1.874-.517c-.156-1.28-.156-2.11 0-3.389l1.875-.517a.67.67 0 0 0 .469-.46q.249-.804.644-1.552a.68.68 0 0 0-.01-.654l-.957-1.69A13.2 13.2 0 0 1 5.9 16.63l1.69.957a.68.68 0 0 0 .654.01 8.7 8.7 0 0 1 1.552-.645.69.69 0 0 0 .46-.469l.517-1.875a15 15 0 0 1 1.65-.107h.078c.528 0 1.045.039 1.65.107l.519 1.875c.058.225.234.4.459.47.527.155 1.044.38 1.552.644a.68.68 0 0 0 .655-.01l1.689-.957c.996.781 1.611 1.406 2.393 2.392l-.957 1.69a.68.68 0 0 0-.01.654c.244.46.478 1.016.644 1.553a.69.69 0 0 0 .469.459l1.875.517c.156 1.28.156 2.11 0 3.39l-1.875.517a.67.67 0 0 0-.469.459 9.3 9.3 0 0 1-.644 1.552.68.68 0 0 0 .01.655l.546.957c0 .01.01.01.01.02l.4.712c-.78.996-1.406 1.611-2.392 2.393l-1.69-.957a.68.68 0 0 0-.654-.01 9 9 0 0 1-1.552.644.69.69 0 0 0-.46.47l-.517 1.874c-1.28.156-2.11.156-3.389 0zm2.9 9.932v-6.602a20 20 0 0 0 1.641-.166.68.68 0 0 0 .567-.498l.547-1.953c.37-.127.742-.283 1.094-.45l1.767.997a.68.68 0 0 0 .752-.049 17 17 0 0 0 1.592-1.338h13.906a.68.68 0 0 0 .684-.683.68.68 0 0 0-.684-.684H22.343c.147-.185.293-.371.45-.576a.68.68 0 0 0 .048-.752l-.049-.088H35a.68.68 0 0 0 .684-.683.68.68 0 0 0-.684-.684H22.011l-.175-.313a10 10 0 0 0 .449-1.093l.058-.02H35a.68.68 0 0 0 .684-.683.68.68 0 0 0-.684-.684H24.786c.068-.527.107-.986.127-1.416H35a.68.68 0 0 0 .684-.684.68.68 0 0 0-.684-.683H24.912c-.03-.479-.078-.987-.157-1.592a.68.68 0 0 0-.498-.566l-1.953-.547a10 10 0 0 0-.449-1.094l.996-1.768a.68.68 0 0 0-.049-.752c-1.093-1.425-1.855-2.197-3.281-3.28a.68.68 0 0 0-.752-.05L16.992 16.2a10 10 0 0 0-1.094-.449l-.547-1.953a.69.69 0 0 0-.566-.498 19 19 0 0 0-1.641-.156V5.37a2.29 2.29 0 0 1 2.285-2.285h30.908a2.29 2.29 0 0 1 2.286 2.285v33.936h-6.016c-.879 0-1.602.722-1.602 1.601v6.016H15.42a2.3 2.3 0 0 1-2.265-2.295m34.513-3.955-5.274 5.273v-5.049c0-.127.107-.234.234-.234h5.04zM44.12 25.537a.68.68 0 0 1-.684.684H37.89a.68.68 0 0 1-.684-.684.68.68 0 0 1 .684-.683h5.547a.68.68 0 0 1 .684.683m-7.49-8.847c.302.048.595.068.898.068a5.9 5.9 0 0 0 2.793-.694c.01 0 .01 0 .02-.01s.019-.01.038-.019a6 6 0 0 0 .752-.478 6 6 0 0 0 2.383-3.975 6 6 0 0 0-1.133-4.492c-.01-.01-.01-.02-.02-.02-.009-.02-.029-.039-.038-.058a.3.3 0 0 1-.05-.059 6.02 6.02 0 0 0-3.866-2.236 6 6 0 0 0-4.492 1.133 6 6 0 0 0-2.383 3.974 6 6 0 0 0 1.133 4.492 6 6 0 0 0 3.964 2.373m.204-1.348a4.65 4.65 0 0 1-3.076-1.846 4.6 4.6 0 0 1-.771-1.611l4.15-.45 1.944 3.692a4.85 4.85 0 0 1-2.247.215m5.323-3.955a4.65 4.65 0 0 1-1.846 3.076c-.01.01-.02.01-.03.02l-1.894-3.585 3.213-2.47c.508.888.703 1.924.557 2.959m-7.432-4.444a4.67 4.67 0 0 1 3.477-.879 4.6 4.6 0 0 1 2.568 1.27l-3.525 2.705-4.415.479c.01-.166.02-.333.05-.508a4.65 4.65 0 0 1 1.845-3.067m-7.91 29.366h-9.707a.68.68 0 0 0-.684.683v2.52c0 .38.303.683.684.683h9.707a.68.68 0 0 0 .684-.683v-2.52a.686.686 0 0 0-.684-.683m-.684 2.52h-8.34v-1.153h8.34zM44.12 22.655v-2.51a.68.68 0 0 0-.684-.683h-10.36a.68.68 0 0 0-.684.683v2.51a.68.68 0 0 0 .684.684h10.361a.68.68 0 0 0 .684-.684m-1.368-.683H33.76V20.83h8.994zm1.368 6.347a.68.68 0 0 1-.684.684H37.89a.68.68 0 0 1-.684-.684.68.68 0 0 1 .684-.683h5.547a.68.68 0 0 1 .684.683m0 2.784a.68.68 0 0 1-.684.683H37.89a.68.68 0 0 1-.684-.683.68.68 0 0 1 .684-.684h5.547a.68.68 0 0 1 .684.683m-6.23 3.466a.68.68 0 0 1-.684-.683.68.68 0 0 1 .683-.684h5.547a.68.68 0 0 1 .684.684.68.68 0 0 1-.684.683zM18.74 25.586a6.287 6.287 0 0 0-6.28-6.28 6.28 6.28 0 0 0 .01 12.559 6.27 6.27 0 0 0 6.27-6.28m-6.27 4.912a4.92 4.92 0 0 1-4.912-4.912 4.916 4.916 0 0 1 4.912-4.912 4.91 4.91 0 0 1 4.912 4.912c-.01 2.705-2.207 4.912-4.912 4.912"/></svg>
